static/client-logos/vault-aviation-logo.svg

<svg height="60" viewBox="0 0 115 60" width="115" xmlns="http://www.w3.org/2000/svg"><g fill="#fefefe" fill-rule="evenodd"><path d="m84.1028812 12.2327586h-6.1233271l-1.1892315 4.6523252h6.123915l-4.1946476 16.4769852h4.7102818l4.1948436-16.4769852h5.125768c1.2590018 0 2.3571007-.8426524 2.6653837-2.0501246l.6647781-2.6022006h-7.2672863z"/><path d="m65.2290605 26.0396968 2.2904676-9.133096 1.1707048-4.6738422h-4.6378591l-1.1707048 4.6699653-2.2902746 9.1237913-.6691947 2.6648131-.5017031 2.0026322c-.3390355 1.3511127.6776851 2.6681085 2.0648941 2.6681085h1.9045421 9.2880678c1.5118629 0 2.8303772-1.0363055 3.2002868-2.5091541l.0395573-.151976.5015101-1.9911951h-11.859489z"/><path d="m60.8387097 12.2327586h-4.7081841l-1.1884565 4.6697715-2.3250025 9.1315451-.6793419 2.6756686h-7.3311333l.6793419-2.670047 2.3251985-9.1332898 1.1884565-4.6736484h-4.708184l-1.1884566 4.6697715-2.3251984 9.1237912-.679146 2.6648132-.5093105 2.0026321c-.3443723 1.3513066.687961 2.6683024 2.0960087 2.6683024h1.933617 7.3311332 1.9334211c1.6313608 0 3.0541002-1.1016319 3.4533213-2.6669455l.5091146-1.9987552.679146-2.66365 2.3251985-9.1296067z"/><path d="m32.6743068 25.9958874h-7.2513287l2.2996933-9.1108036h7.2515225zm8.1321448-13.7631288h-4.6567384-7.2515225-.5545305c-2.4120719 0-4.5158775 1.6502185-5.1062529 3.9901443l-.1714743.6850549-2.2996933 9.1210774-1.1755194 4.6647314-.6713655 2.6683024h4.6567384l.6713656-2.7138564h7.2513287l-.6713655 2.7138564h4.6569321l.6711718-2.6669455 1.1755193-4.6612421 2.2998871-9.1301883z"/><path d="m114.753499 6.69933621-2.190059-2.16543104h-3.831582-1.191447l-1.141049-4.46120689h-3.523553-1.153114-2.6549234l2.9014634.96362069.894315 3.4975862h-81.5062014c-1.8946785 0-3.5482657 1.27765086-4.0166329 3.10849138l-.3961759 1.55676724-4.9533672 19.38646551h-.9186379c-.8483926 0-1.5887902-.5818965-1.79855331-1.4017888l-4.22036379-16.5173276c-.22182741-.86644393-1.00483926-1.47743531-1.90226735-1.47743531h-3.15131133l4.95336717 19.38045261.39345178 1.557737c.46311337 1.828125 2.11203045 3.1135345 4.00320643 3.1135345h6.137225l1.1807445-4.6664224 4.5797632-17.921444c.2198815-.85984909.9962775-1.46385771 1.8861167-1.46385771h79.7294413l-.89412 3.49758621-2.9014634.9636207h2.6549234 1.153114 3.523553l1.14066-4.46120691h1.191836 3.831582l2.346506-2.33709052z"/><g transform="translate(13.354839 38.922414)"><path d="m2.24594462 3.37346311v-.69753707c-.22931984-.29617723-.59345195-.44087598-.98458622-.44087598-.53289563 0-.89047575.33549965-.89047575.78954766 0 .4476557.35758012.78315534.89047575.78315534.39113427 0 .75526638-.14469874.98458622-.43428995zm0 .62528456v-.37520948c-.28987616.30934927-.65420682.45404802-1.10609596.45404802-.55989779 0-1.13984866-.37520948-1.13984866-1.05957451 0-.69075735.57339887-1.05279478 1.13984866-1.05279478.45188914 0 .82277179.14508616 1.10609596.45404802v-.64484891c0-.47361237-.39113427-.73027347-.87002558-.73027347-.41138589 0-.72846276.13791902-1.02508947.46722005l-.19576568-.23709674c.3373285-.35525771.71496169-.53288656 1.25460786-.53288656.66095736 0 1.18710244.30934927 1.18710244 1.02005838v2.23730998z"/><path d="m10.5706164 4.07758621-1.29642285-3.3362069h.36853578l1.11851547 2.91491115 1.1057944-2.91491115h.3748963l-1.2964228 3.3362069z"/><path d="m19.3877733 4.07758621h.3617549v-3.08702231h-.3617549zm-.0974507-3.828299c0-.14072968.1322545-.24928721.2782258-.24928721.1529321 0 .2782258.10855753.2782258.24928721 0 .14054155-.1252937.25568402-.2782258.25568402-.1459713 0-.2782258-.11514247-.2782258-.25568402z"/><path d="m29.3267883 3.37346311v-.69753707c-.2293198-.29617723-.5936505-.44087598-.9847847-.44087598-.5328957 0-.8902772.33549965-.8902772.78954766 0 .4476557.3573815.78315534.8902772.78315534.3911342 0 .7554649-.14469874.9847847-.43428995zm0 .62528456v-.37520948c-.2900747.30934927-.6542068.45404802-1.1060959.45404802-.5598978 0-1.1400472-.37520948-1.1400472-1.05957451 0-.69075735.5733988-1.05279478 1.1400472-1.05279478.4518891 0 .8227718.14508616 1.1060959.45404802v-.64484891c0-.47361237-.3913328-.73027347-.8700256-.73027347-.4115844 0-.7284627.13791902-1.025288.46722005l-.1955671-.23709674c.3371299-.35525771.7149617-.53288656 1.2546079-.53288656.6609573 0 1.1869039.30934927 1.1869039 1.02005838v2.23730998z"/><path d="m36.9321121 3.39466997v-2.23733085h-.5772734v-.29905107h.5772734v-.85828805h.3826534v.85828805h.7073034v.29905107h-.7073034v2.18544683c0 .25367648.1153697.42943121.3607694.42943121.1659369 0 .3104146-.07160378.3896648-.14990844l.1444777.26037737c-.1370413.11697836-.3031907.19490012-.5917211.19490012-.4621162 0-.6858442-.25348503-.6858442-.68291624"/><path d="m44.9845475 4.07758621h.3617549v-3.08702231h-.3617549zm-.0974507-3.828299c0-.14072968.1320497-.24928721.2782258-.24928721.152932 0 .2782258.10855753.2782258.24928721 0 .14054155-.1252938.25568402-.2782258.25568402-.1461761 0-.2782258-.11514247-.2782258-.25568402z"/><path d="m55.287044 2.4062866c0-.7043168-.4031174-1.35555802-1.1321554-1.35555802-.7162346 0-1.1257536.65124122-1.1257536 1.35555802 0 .71051541.409519 1.36214405 1.1257536 1.36214405.729038 0 1.1321554-.65162864 1.1321554-1.36214405m-2.6096246 0c0-.92785409.575586-1.66490729 1.4774692-1.66490729.9146867 0 1.4902727.7370532 1.4902727 1.66490729 0 .92766039-.575586 1.67129961-1.4902727 1.67129961-.9018832 0-1.4774692-.74363922-1.4774692-1.67129961"/><path d="m65.3041606 4.07758621v-2.20390046c0-.62696484-.3229537-.81564951-.8038453-.81564951-.4258864 0-.865524.26269033-1.0786694.55950659v2.46004338h-.3571298v-3.25545541h.3571298v.49204835c.240648-.2829278.714664-.57279984 1.1955556-.57279984.6732077 0 1.0440888.32340275 1.0440888 1.05810237v2.27810453z"/></g></g></svg>

<?xml version="1.0" encoding="UTF-8"?>
<svg width="115px" height="60px" viewBox="0 0 115 60" version="1.1" xmlns="http://www.w3.org/2000/svg" xmlns:xlink="http://www.w3.org/1999/xlink">
    <!-- Generator: Sketch 49.2 (51160) - http://www.bohemiancoding.com/sketch -->
    <title>vault-aviation-logo</title>
    <desc>Created with Sketch.</desc>
    <defs></defs>
    <g id="vault-aviation-logo" stroke="none" stroke-width="1" fill="none" fill-rule="evenodd">
        <g id="Brand-/-Logo" fill="#FEFEFE">
            <g id="Page-1">
                <path d="M84.1028812,12.2327586 L77.9795541,12.2327586 L76.7903226,16.8850838 L82.9142376,16.8850838 L78.71959,33.362069 L83.4298718,33.362069 L87.6247154,16.8850838 L92.7504834,16.8850838 C94.0094852,16.8850838 95.1075841,16.0424314 95.4158671,14.8349592 L96.0806452,12.2327586 L88.8133589,12.2327586 L84.1028812,12.2327586 Z" id="T"></path>
                <path d="M65.2290605,26.0396968 L67.5195281,16.9066008 L68.6902329,12.2327586 L64.0523738,12.2327586 L62.881669,16.9027239 L60.5913944,26.0265152 L59.9221997,28.6913283 L59.4204966,30.6939605 C59.0814611,32.0450732 60.0981817,33.362069 61.4853907,33.362069 L63.3899328,33.362069 L72.6780006,33.362069 C74.1898635,33.362069 75.5083778,32.3257635 75.8782874,30.8529149 L75.9178447,30.7009389 L76.4193548,28.7097438 L64.5598658,28.7097438 L65.2290605,26.0396968 Z" id="L"></path>
                <path d="M60.8387097,12.2327586 L56.1305256,12.2327586 L54.9420691,16.9025301 L52.6170666,26.0340752 L51.9377247,28.7097438 L44.6065914,28.7097438 L45.2859333,26.0396968 L47.6111318,16.906407 L48.7995883,12.2327586 L44.0914043,12.2327586 L42.9029477,16.9025301 L40.5777493,26.0263213 L39.8986033,28.6911345 L39.3892928,30.6937666 C39.0449205,32.0450732 40.0772538,33.362069 41.4853015,33.362069 L43.4189185,33.362069 L50.7500517,33.362069 L52.6834728,33.362069 C54.3148336,33.362069 55.737573,32.2604371 56.1367941,30.6951235 L56.6459087,28.6963683 L57.3250547,26.0327183 L59.6502532,16.9031116 L60.8387097,12.2327586 Z" id="U"></path>
                <path d="M32.6743068,25.9958874 L25.4229781,25.9958874 L27.7226714,16.8850838 L34.9741939,16.8850838 L32.6743068,25.9958874 Z M40.8064516,12.2327586 L36.1497132,12.2327586 L28.8981907,12.2327586 L28.3436602,12.2327586 C25.9315883,12.2327586 23.8277827,13.8829771 23.2374073,16.2229029 L23.065933,16.9079578 L20.7662397,26.0290352 L19.5907203,30.6937666 L18.9193548,33.362069 L23.5760932,33.362069 L24.2474588,30.6482126 L31.4987875,30.6482126 L30.827422,33.362069 L35.4843541,33.362069 L36.1555259,30.6951235 L37.3310452,26.0338814 L39.6309323,16.9036931 L40.8064516,12.2327586 Z" id="A"></path>
                <path d="M114.753499,6.69933621 L112.56344,4.53390517 L108.731858,4.53390517 L107.540411,4.53390517 L106.399362,0.0726982759 L102.875809,0.0726982759 L101.722695,0.0726982759 L99.0677716,0.0726982759 L101.969235,1.03631897 L102.86355,4.53390517 L21.3573486,4.53390517 C19.4626701,4.53390517 17.8090829,5.81155603 17.3407157,7.64239655 L16.9445398,9.19916379 L11.9911726,28.5856293 L11.0725347,28.5856293 C10.2241421,28.5856293 9.4837445,28.0037328 9.27398139,27.1838405 L5.0536176,10.6665129 C4.83179019,9.80006897 4.04877834,9.18907759 3.15135025,9.18907759 L3.89170897e-05,9.18907759 L4.95340609,28.5695302 L5.34685787,30.1272672 C5.80997124,31.9553922 7.45888832,33.2408017 9.3500643,33.2408017 L15.4872893,33.2408017 L16.6680338,28.5743793 L21.247797,10.6529353 C21.4676785,9.79308621 22.2440745,9.18907759 23.1339137,9.18907759 L102.863355,9.18907759 L101.969235,12.6866638 L99.0677716,13.6502845 L101.722695,13.6502845 L102.875809,13.6502845 L106.399362,13.6502845 L107.540022,9.18907759 L108.731858,9.18907759 L112.56344,9.18907759 L114.909946,6.85198707 L114.753499,6.69933621 Z" id="V"></path>
                <g id="Group" transform="translate(13.354839, 38.922414)">
                    <path d="M2.24594462,3.37346311 L2.24594462,2.67592604 C2.01662478,2.37974881 1.65249267,2.23505006 1.2613584,2.23505006 C0.728462766,2.23505006 0.370882651,2.57054971 0.370882651,3.02459772 C0.370882651,3.47225342 0.728462766,3.80775306 1.2613584,3.80775306 C1.65249267,3.80775306 2.01662478,3.66305432 2.24594462,3.37346311 Z M2.24594462,3.99874767 L2.24594462,3.62353819 C1.95606846,3.93288746 1.5917378,4.07758621 1.13984866,4.07758621 C0.579950869,4.07758621 0,3.70237673 0,3.0180117 C0,2.32725435 0.573398874,1.96521692 1.13984866,1.96521692 C1.5917378,1.96521692 1.96262045,2.11030308 2.24594462,2.41926494 L2.24594462,1.77441603 C2.24594462,1.30080366 1.85481035,1.04414256 1.37591904,1.04414256 C0.964533147,1.04414256 0.647456277,1.18206158 0.350829574,1.51136261 L0.155063892,1.27426587 C0.492392385,0.919008163 0.870025577,0.74137931 1.40967175,0.74137931 C2.07062911,0.74137931 2.59677419,1.05072858 2.59677419,1.76143769 L2.59677419,3.99874767 L2.24594462,3.99874767 Z" id="Fill-12"></path>
                    <polygon id="Fill-14" points="10.5706164 4.07758621 9.27419355 0.74137931 9.64272933 0.74137931 10.7612448 3.65629046 11.8670392 0.74137931 12.2419355 0.74137931 10.9455127 4.07758621"></polygon>
                    <path d="M19.3877733,4.07758621 L19.7495282,4.07758621 L19.7495282,0.990563899 L19.3877733,0.990563899 L19.3877733,4.07758621 Z M19.2903226,0.249287211 C19.2903226,0.108557525 19.4225771,0 19.5685484,0 C19.7214805,0 19.8467742,0.108557525 19.8467742,0.249287211 C19.8467742,0.389828756 19.7214805,0.504971226 19.5685484,0.504971226 C19.4225771,0.504971226 19.2903226,0.389828756 19.2903226,0.249287211 Z" id="Fill-16"></path>
                    <path d="M29.3267883,3.37346311 L29.3267883,2.67592604 C29.0974685,2.37974881 28.7331378,2.23505006 28.3420036,2.23505006 C27.8091079,2.23505006 27.4517264,2.57054971 27.4517264,3.02459772 C27.4517264,3.47225342 27.8091079,3.80775306 28.3420036,3.80775306 C28.7331378,3.80775306 29.0974685,3.66305432 29.3267883,3.37346311 Z M29.3267883,3.99874767 L29.3267883,3.62353819 C29.0367136,3.93288746 28.6725815,4.07758621 28.2206924,4.07758621 C27.6607946,4.07758621 27.0806452,3.70237673 27.0806452,3.0180117 C27.0806452,2.32725435 27.654044,1.96521692 28.2206924,1.96521692 C28.6725815,1.96521692 29.0434642,2.11030308 29.3267883,2.41926494 L29.3267883,1.77441603 C29.3267883,1.30080366 28.9354555,1.04414256 28.4567627,1.04414256 C28.0451783,1.04414256 27.7283,1.18206158 27.4314747,1.51136261 L27.2359076,1.27426587 C27.5730375,0.919008163 27.9508693,0.74137931 28.4905155,0.74137931 C29.1514728,0.74137931 29.6774194,1.05072858 29.6774194,1.76143769 L29.6774194,3.99874767 L29.3267883,3.99874767 Z" id="Fill-18"></path>
                    <path d="M36.9321121,3.39466997 L36.9321121,1.15733912 L36.3548387,1.15733912 L36.3548387,0.858288054 L36.9321121,0.858288054 L36.9321121,0 L37.3147655,0 L37.3147655,0.858288054 L38.0220689,0.858288054 L38.0220689,1.15733912 L37.3147655,1.15733912 L37.3147655,3.34278595 C37.3147655,3.59646243 37.4301352,3.77221716 37.6755349,3.77221716 C37.8414718,3.77221716 37.9859495,3.70061338 38.0651997,3.62230872 L38.2096774,3.88268609 C38.0726361,3.99966445 37.9064867,4.07758621 37.6179563,4.07758621 C37.1558401,4.07758621 36.9321121,3.82410118 36.9321121,3.39466997" id="Fill-19"></path>
                    <path d="M44.9845475,4.07758621 L45.3463024,4.07758621 L45.3463024,0.990563899 L44.9845475,0.990563899 L44.9845475,4.07758621 Z M44.8870968,0.249287211 C44.8870968,0.108557525 45.0191465,0 45.1653226,0 C45.3182546,0 45.4435484,0.108557525 45.4435484,0.249287211 C45.4435484,0.389828756 45.3182546,0.504971226 45.1653226,0.504971226 C45.0191465,0.504971226 44.8870968,0.389828756 44.8870968,0.249287211 Z" id="Fill-20"></path>
                    <path d="M55.287044,2.4062866 C55.287044,1.7019698 54.8839266,1.05072858 54.1548886,1.05072858 C53.438654,1.05072858 53.029135,1.7019698 53.029135,2.4062866 C53.029135,3.11680201 53.438654,3.76843065 54.1548886,3.76843065 C54.8839266,3.76843065 55.287044,3.11680201 55.287044,2.4062866 M52.6774194,2.4062866 C52.6774194,1.47843251 53.2530054,0.74137931 54.1548886,0.74137931 C55.0695753,0.74137931 55.6451613,1.47843251 55.6451613,2.4062866 C55.6451613,3.33394699 55.0695753,4.07758621 54.1548886,4.07758621 C53.2530054,4.07758621 52.6774194,3.33394699 52.6774194,2.4062866" id="Fill-21"></path>
                    <path d="M65.3041606,4.07758621 L65.3041606,1.87368575 C65.3041606,1.24672091 64.9812069,1.05803624 64.5003153,1.05803624 C64.0744289,1.05803624 63.6347913,1.32072657 63.4216459,1.61754283 L63.4216459,4.07758621 L63.0645161,4.07758621 L63.0645161,0.822130795 L63.4216459,0.822130795 L63.4216459,1.31417915 C63.6622939,1.03125135 64.1363099,0.74137931 64.6172015,0.74137931 C65.2904092,0.74137931 65.6612903,1.06478206 65.6612903,1.79948168 L65.6612903,4.07758621 L65.3041606,4.07758621 Z" id="Fill-22"></path>
                </g>
            </g>
        </g>
    </g>
</svg>
